Adwaita++-Light/panel/16/gnome-pie-symbolic.svg

<svg height="16" width="16" xmlns="http://www.w3.org/2000/svg">
  <path d="m10.212891 1.0058594c-.145201-.01014755-.2893452-.0088495-.4335941.0019531-.960232.0720174-1.8684025.6048033-2.3828125 1.5039063-.8222844 1.438462-.323399 3.2694265 1.1152344 4.0917968 1.4386334.8222844 3.2695982.3232277 4.0917972-1.1152344.822199-1.4384617.323398-3.2694266-1.115235-4.0917968v-.0019532c-.405097-.2312908-.83979-.3582293-1.27539-.3886718zm-6.3593754 2c-.6402142.0480041-1.2473347.4026223-1.5898437 1.0019531-.5481265.9588812-.2147405 2.1804691.7441406 2.7285156.9588813.5482864 2.1804692.2145007 2.7285156-.7441406.5480465-.9591212.2145005-2.1803893-.7441406-2.7285156-.3596305-.2055374-.7545593-.2866149-1.1386719-.2578125zm-1.4648437 5c-.4800293.0359966-.9345557.3000427-1.1914063.75-.41111084.7191815-.1604378 1.6359136.5585938 2.0468746s1.6358392.159838 2.046875-.558593c.411036-.7191828.1604378-1.6351645-.5585938-2.0468754-.2695993-.1537354-.567421-.2131541-.8554687-.1914062zm9.4648441 0c-.640849.048003-1.247419.4027076-1.589844 1.0019531-.5480424.9584725-.214332 2.1804745.74414 2.7285155.958473.548042 2.180475.214331 2.728516-.74414.548042-.958472.215131-2.1804747-.74414-2.7285161-.359228-.2056156-.754643-.2869347-1.138672-.2578125zm-3.2558598 3.9960936c-.5835978-.03826-1.1592033.271079-1.4375.826172-.3713122.741124-.0724054 1.640407.6679688 2.011719.7403742.371313 1.6404077.072404 2.0117188-.667969.3713132-.740373.0724122-1.640407-.6679688-2.011719-.1852816-.09301-.3799362-.145451-.5742188-.158203zm-4.671875 1.001953c-.3200202.02399-.6217625.200106-.7929687.5-.2739698.479165-.1082702 1.091332.3710937 1.365235.479164.273903 1.0912646.106117 1.3652344-.373047.2739032-.479164.1061836-1.091332-.3730468-1.365235-.1798031-.102631-.3783803-.141614-.5703126-.126953z" fill="#444"/>
</svg>

<svg xmlns="http://www.w3.org/2000/svg" width="16" height="16" version="1.1">
 <defs>
  <style id="current-color-scheme" type="text/css">
   .ColorScheme-Text { color:#444444; } .ColorScheme-Highlight { color:#4285f4; }
  </style>
 </defs>
 <path style="fill:currentColor" class="ColorScheme-Text" d="M 10.212891 1.0058594 C 10.06769 0.99571185 9.9235458 0.9970099 9.7792969 1.0078125 C 8.8190649 1.0798299 7.9108944 1.6126158 7.3964844 2.5117188 C 6.5742 3.9501808 7.0730854 5.7811453 8.5117188 6.6035156 C 9.9503522 7.4258 11.781317 6.9267433 12.603516 5.4882812 C 13.425715 4.0498195 12.926914 2.2188546 11.488281 1.3964844 L 11.488281 1.3945312 C 11.083184 1.1632404 10.648491 1.0363019 10.212891 1.0058594 z M 3.8535156 3.0058594 C 3.2133014 3.0538635 2.6061809 3.4084817 2.2636719 4.0078125 C 1.7155454 4.9666937 2.0489314 6.1882816 3.0078125 6.7363281 C 3.9666938 7.2846145 5.1882817 6.9508288 5.7363281 5.9921875 C 6.2843746 5.0330663 5.9508286 3.8117982 4.9921875 3.2636719 C 4.632557 3.0581345 4.2376282 2.977057 3.8535156 3.0058594 z M 2.3886719 8.0058594 C 1.9086426 8.041856 1.4541162 8.3059021 1.1972656 8.7558594 C 0.78615476 9.4750409 1.0368278 10.391773 1.7558594 10.802734 C 2.474891 11.213695 3.3916986 10.962572 3.8027344 10.244141 C 4.2137704 9.5249582 3.9631722 8.6089765 3.2441406 8.1972656 C 2.9745413 8.0435302 2.6767196 7.9841115 2.3886719 8.0058594 z M 11.853516 8.0058594 C 11.212667 8.0538624 10.606097 8.408567 10.263672 9.0078125 C 9.7156296 9.966285 10.04934 11.188287 11.007812 11.736328 C 11.966285 12.28437 13.188287 11.950659 13.736328 10.992188 C 14.28437 10.033716 13.951459 8.8117133 12.992188 8.2636719 C 12.63296 8.0580563 12.237545 7.9767372 11.853516 8.0058594 z M 8.5976562 12.001953 C 8.0140584 11.963693 7.4384529 12.273032 7.1601562 12.828125 C 6.788844 13.569249 7.0877508 14.468532 7.828125 14.839844 C 8.5684992 15.211157 9.4685327 14.912248 9.8398438 14.171875 C 10.211157 13.431502 9.912256 12.531468 9.171875 12.160156 C 8.9865934 12.067146 8.7919388 12.014705 8.5976562 12.001953 z M 3.9257812 13.003906 C 3.605761 13.027896 3.3040187 13.204012 3.1328125 13.503906 C 2.8588427 13.983071 3.0245423 14.595238 3.5039062 14.869141 C 3.9830702 15.143044 4.5951708 14.975258 4.8691406 14.496094 C 5.1430438 14.01693 4.9753242 13.404762 4.4960938 13.130859 C 4.3162907 13.028228 4.1177135 12.989245 3.9257812 13.003906 z"/>
</svg>
